X: 21321
U: Q=!diminuendo(!
U: q=!diminuendo)!
M: 6/8
L: 1/8
K: D
V: 1 name="1"
a |\
a2f f2d | dcd B2d | A2d c2d | ([f3A3] [e2A2])a |\
a2f f2d | dcd B2d | A2a gec | ddd d2 H|]
a |\
a2f a2f | g2e g2e | f2d def | ecA A2a |\
a2f a2f | g2e g2e | f2d c2d | (f3 "^D.C."e2) |]
d2d d2c | (Q=c3 qB2)B | e2e e2^d | (Qd3 qc2)e |\
f2f fef | d2d d2c | B2b a2^g | (b3 "^D.C."a2) |]


